storage/app/icons/phosphoricons/light/currency-cny-light.svg

<svg xmlns="http://www.w3.org/2000/svg" fill="currentColor" viewBox="0 0 256 256"><path d="M58 56a6 6 0 0 1 6-6h128a6 6 0 0 1 0 12H64a6 6 0 0 1-6-6m158 106a6 6 0 0 0-6 6v18h-34a18 18 0 0 1-18-18v-50h50a6 6 0 0 0 0-12H48a6 6 0 0 0 0 12h50v10a58.07 58.07 0 0 1-58 58 6 6 0 0 0 0 12 70.08 70.08 0 0 0 70-70v-10h36v50a30 30 0 0 0 30 30h40a6 6 0 0 0 6-6v-24a6 6 0 0 0-6-6"/></svg>

<svg xmlns="http://www.w3.org/2000/svg" viewBox="0 0 256 256" fill="currentColor"><path d="M58,56a6,6,0,0,1,6-6H192a6,6,0,0,1,0,12H64A6,6,0,0,1,58,56ZM216,162a6,6,0,0,0-6,6v18H176a18,18,0,0,1-18-18V118h50a6,6,0,0,0,0-12H48a6,6,0,0,0,0,12H98v10a58.07,58.07,0,0,1-58,58,6,6,0,0,0,0,12,70.08,70.08,0,0,0,70-70V118h36v50a30,30,0,0,0,30,30h40a6,6,0,0,0,6-6V168A6,6,0,0,0,216,162Z"/></svg>
